!!!OTL: 90. Freylekhs
!!!Genre:	Freylekhs
!!!Mode:	Freygish
!!!Listening/dance:	dance
!!!:	*C:
!!!One_Mode:	no
**kern
*thru
*part1
*staff1
*clefG2
*>A
*k[b-e-a-]
*C:
=17!|:
!LO:TX:a:i:t=G-freygish
8g
=1
8bnL
8ccJ
4dd
=2
(>16ee-LL
16ffJ
8ee-J)
4dd
=3
(>16ccLL
16ddJ
8ccJ)
4bn
=4
(<16a-LL
16bnJ
8a-J)
4g
=5
8bnL
8ccJ
4dd
=6
8ee-L
8ddJ
12ee-L
12dd
12ccJ
=7
2dd
=8
2gg
=9
8bnL
8ccJ
4dd
=10
(>16ee-LL
16ffJ
8ee-J)
4dd
=11
(>16ccLL
16ddJ
8ccJ)
4bn
=12
(<16a-LL
16bnJ
8a-J)
4g
=13
8fL
8en
8f
8eJ
=14
8fL
8cc
8bn
8a-J
=15
2g
=16
4g
8r
=16:|!
8r
*>B
!!!Begin-Modulation
*C:
=17!|:
!LO:TX:a:i:t=C-major
8ccL
8ddJ
8eenL
8ffJ
=18
16eenLL
16ffJ
8eeJ
8ddL
8ccJ
=19
8ddL
16eenL
16ddJJ
8ccL
8bnJ
=20
2cc
!!!End-Modulation
!!!Begin-Modulation
*-
